WPMap/assets/css/svg/icon_money.svg

<svg width="67" height="43" viewBox="0 0 67 43" fill="none" xmlns="http://www.w3.org/2000/svg">
<path d="M0 38.3732C0 40.8612 9.77659 43 21.8363 43C24.7874 43 27.6099 42.8719 30.19 42.642C28.2518 40.8375 26.6069 38.7428 25.3309 36.4306C24.1918 36.4683 23.0245 36.4879 21.8363 36.4879C9.77659 36.4879 0 34.4703 0 31.9823V38.3732Z" fill="black"/>
<path d="M23.423 31.9682C22.8988 31.9759 22.3696 31.9799 21.8363 31.9799C9.77659 31.9799 0 29.9635 0 27.4756V21.0835C0 23.5715 9.77659 25.5891 21.8363 25.5891C22.0066 25.5891 22.1764 25.5887 22.3458 25.5879C22.4168 27.7998 22.7886 29.9388 23.423 31.9682Z" fill="black"/>
<path d="M22.5777 21.3774C22.3315 21.3791 22.0844 21.38 21.8363 21.38C9.77659 21.38 0 19.3636 0 16.8756V10.4848C0 12.9728 9.77659 14.9891 21.8363 14.9891C22.7183 14.9891 23.5887 14.9783 24.4447 14.9574C23.538 16.9728 22.901 19.1269 22.5777 21.3774Z" fill="black"/>
<path d="M27.0965 10.4348C25.4091 10.5355 23.6469 10.5889 21.8363 10.5889C9.77659 10.5889 0 8.21853 0 5.29446C0 2.37038 9.77659 0 21.8363 0C28.4146 0 34.3537 0.70529 38.3937 1.82102C33.8288 3.60969 29.9166 6.62196 27.0965 10.4348Z" fill="black"/>
<path d="M43.7414 20.5446L40.8342 18.1821L40.834 23.0099C40.834 23.0099 44.6244 23.7826 46.7148 25.1741V18.1563L43.7414 20.5446Z" fill="black"/>
<path fill-rule="evenodd" clip-rule="evenodd" d="M48.1026 43C58.5393 43 67 34.855 67 24.8077C67 14.7604 58.5393 6.61538 48.1026 6.61538C37.6658 6.61538 29.2051 14.7604 29.2051 24.8077C29.2051 34.855 37.6658 43 48.1026 43ZM42.7504 28.1462V26.2457H37.7949V30.5088C37.7949 30.5088 38.0208 32.7213 41.561 33.0769H44.9308C44.9308 33.0769 46.8086 33.0223 48.1355 31.9758C49.4623 33.0223 51.2741 33.0769 51.2741 33.0769H57.0889V19.4663C57.0889 19.4663 57.0928 18.8499 58.08 18.8499H58.4103V16.5386H55.1726C55.1726 16.5386 54.2184 16.6004 54.0493 17.2063V31.4333H51.7365C50.0374 31.0811 49.6225 29.5328 49.6225 29.5328V16.5385H45.79L43.6755 18.2334L41.6933 16.5385H38.72L37.7949 17.2575V24.4481C44.6354 25.0471 46.191 26.7852 46.6127 27.2565C46.6259 27.2713 46.638 27.2847 46.6491 27.2969V30.3546C46.6491 30.3546 46.3144 31.4333 45.0632 31.4333H42.5522C40.721 31.007 40.8342 29.6357 40.8342 29.6357V28.1462H42.7504Z" fill="black"/>
</svg>

<svg xmlns="http://www.w3.org/2000/svg" width="67" height="43" fill="none"><path fill="#000" d="M0 38.373C0 40.861 9.777 43 21.836 43c2.951 0 5.774-.128 8.354-.358a25.002 25.002 0 0 1-4.86-6.211c-1.138.037-2.305.057-3.494.057C9.776 36.488 0 34.47 0 31.982v6.391ZM23.423 31.968c-.524.008-1.053.012-1.587.012C9.776 31.98 0 29.963 0 27.476v-6.392c0 2.488 9.777 4.505 21.836 4.505l.51-.001c.07 2.212.443 4.35 1.077 6.38ZM22.578 21.377c-.247.002-.494.003-.742.003C9.776 21.38 0 19.364 0 16.876v-6.391c0 2.488 9.777 4.504 21.836 4.504.882 0 1.753-.01 2.609-.032a23.925 23.925 0 0 0-1.867 6.42ZM27.096 10.435c-1.687.1-3.45.154-5.26.154C9.776 10.589 0 8.219 0 5.294 0 2.37 9.777 0 21.836 0c6.579 0 12.518.705 16.558 1.821-4.565 1.789-8.477 4.801-11.297 8.614ZM43.741 20.545l-2.907-2.363v4.828s3.79.773 5.88 2.164v-7.018l-2.973 2.389Z"/><path fill="#000" fill-rule="evenodd" d="M48.103 43C58.539 43 67 34.855 67 24.808 67 14.76 58.54 6.615 48.103 6.615c-10.437 0-18.898 8.145-18.898 18.193C29.205 34.855 37.665 43 48.103 43ZM42.75 28.146v-1.9h-4.955v4.263s.226 2.212 3.766 2.568h3.37s1.878-.055 3.205-1.101c1.326 1.046 3.138 1.1 3.138 1.1h5.815v-13.61s.004-.616.991-.616h.33v-2.311h-3.237s-.955.061-1.124.667v14.227h-2.313c-1.699-.352-2.113-1.9-2.113-1.9V16.538H45.79l-2.114 1.695-1.983-1.695H38.72l-.925.72v7.19c6.84.6 8.396 2.337 8.818 2.808l.036.04v3.059s-.335 1.078-1.586 1.078h-2.51c-1.832-.426-1.719-1.797-1.719-1.797v-1.49h1.916Z" clip-rule="evenodd"/></svg>
